**harm	**harte	**timestamp	**phrase	**leadinstrument	**kern
*M4/4	*M4/4	*	*	*	*
*F:	*F:	*	*	*	*F:
1r;	N	0	.	r	1r;
=1	=1	=1	=1	=1	=1
*>A_chorus	*>A_chorus	*>A_chorus	*>A_chorus	*>A_chorus	*>A_chorus
2I	F:maj	0.72	newline	voice	2F 2a 2cc
2iii7	A:min7	2.247	.	voice	2A 2cc 2ee 2gg
=2	=2	=2	=2	=2	=2
2vi	D:min	3.773	.	voice	2D 2f 2a
2Ic	F:maj/5	5.3	.	voice	2f 2a 2C
=3	=3	=3	=3	=3	=3
2IV	B-:maj	6.827	.	voice	2B- 2dd 2ff
2Ib	F:maj/3	8.353	.	voice	2f 2A 2cc
=4	=4	=4	=4	=4	=4
2ii7	G:min7	9.88	.	voice	2G 2b- 2dd 2ff
2V7	C:11	11.407	.	voice	2C 2e 2g 2b-
=5	=5	=5	=5	=5	=5
2I	F:maj	12.934	newline	voice	2F 2a 2cc
2iii7	A:min7	14.402	.	voice	2A 2cc 2ee 2gg
=6	=6	=6	=6	=6	=6
2vi	D:min	15.871	.	voice	2D 2f 2a
2Ic	F:maj/5	17.34	.	voice	2f 2a 2C
=7	=7	=7	=7	=7	=7
2IV	B-:maj	18.809	.	voice	2B- 2dd 2ff
2Ib	F:maj/3	20.278	.	voice	2f 2A 2cc
=8	=8	=8	=8	=8	=8
*M2/4	*M2/4	*M2/4	*M2/4	*M2/4	*M2/4
2ii7	G:min7	21.746	.	voice	2G 2b- 2dd 2ff
=9	=9	=9	=9	=9	=9
*>B_interlude	*>B_interlude	*>B_interlude	*>B_interlude	*>B_interlude	*>B_interlude
*M4/4	*M4/4	*M4/4	*M4/4	*M4/4	*M4/4
1I	F:maj	23.215	->newline	guitar	1F 1a 1cc
=10	=10	=10	=10	=10	=10
1I	F:maj	26.066	.	guitar	1F 1a 1cc
=11	=11	=11	=11	=11	=11
*>C_chorus	*>C_chorus	*>C_chorus	*>C_chorus	*>C_chorus	*>C_chorus
1IV7	B-:maj7	28.918	newline	voice	1B- 1dd 1ff 1aa
=12	=12	=12	=12	=12	=12
1ii7	G:min7	31.814	.	voice	1G 1b- 1dd 1ff
=13	=13	=13	=13	=13	=13
1Ic	F:maj/5	34.71	.	voice	1f 1a 1C
=14	=14	=14	=14	=14	=14
4ii7	G:min7	37.606	.	voice	4G 4b- 4dd 4ff
4iii7	A:min7	38.33	.	voice	4A 4cc 4ee 4gg
2vi	D:min	39.054	.	voice	2D 2f 2a
=15	=15	=15	=15	=15	=15
1IV7	B-:maj7	40.502	newline	voice	1B- 1dd 1ff 1aa
=16	=16	=16	=16	=16	=16
1ii7	G:min7	43.402	.	voice	1G 1b- 1dd 1ff
=17	=17	=17	=17	=17	=17
1ii7	G:min7	46.302	.	voice	1G 1b- 1dd 1ff
=18	=18	=18	=18	=18	=18
1V7	C:11	49.202	.	voice	1C 1e 1g 1b-
=19	=19	=19	=19	=19	=19
*>A_chorus	*>A_chorus	*>A_chorus	*>A_chorus	*>A_chorus	*>A_chorus
2I	F:maj	52.101	newline	voice	2F 2a 2cc
2iii7	A:min7	53.548	.	voice	2A 2cc 2ee 2gg
=20	=20	=20	=20	=20	=20
2vi	D:min	54.994	.	voice	2D 2f 2a
2Ic	F:maj/5	56.44	.	voice	2f 2a 2C
=21	=21	=21	=21	=21	=21
2IV	B-:maj	57.886	.	voice	2B- 2dd 2ff
2Ib	F:maj/3	59.332	.	voice	2f 2A 2cc
=22	=22	=22	=22	=22	=22
2ii7	G:min7	60.778	.	voice	2G 2b- 2dd 2ff
2V7	C:11	62.224	.	voice	2C 2e 2g 2b-
=23	=23	=23	=23	=23	=23
2I	F:maj	63.67	newline	voice	2F 2a 2cc
2iii7	A:min7	65.102	.	voice	2A 2cc 2ee 2gg
=24	=24	=24	=24	=24	=24
2vi	D:min	66.535	.	voice	2D 2f 2a
2Ic	F:maj/5	67.967	.	voice	2f 2a 2C
=25	=25	=25	=25	=25	=25
2IV	B-:maj	69.4	.	voice	2B- 2dd 2ff
2Ib	F:maj/3	70.832	.	voice	2f 2A 2cc
=26	=26	=26	=26	=26	=26
2ii7	G:min7	72.265	.	voice	2G 2b- 2dd 2ff
2I	F:maj	73.698	.	voice	2F 2a 2cc
=27	=27	=27	=27	=27	=27
*>C_chorus	*>C_chorus	*>C_chorus	*>C_chorus	*>C_chorus	*>C_chorus
1IV7	B-:maj7	75.13	newline	voice	1B- 1dd 1ff 1aa
=28	=28	=28	=28	=28	=28
1ii7	G:min7	77.995	.	voice	1G 1b- 1dd 1ff
=29	=29	=29	=29	=29	=29
1Ic	F:maj/5	80.86	.	voice	1f 1a 1C
=30	=30	=30	=30	=30	=30
4ii7	G:min7	83.725	.	voice	4G 4b- 4dd 4ff
4iii7	A:min7	84.441	.	voice	4A 4cc 4ee 4gg
2vi	D:min	85.157	.	voice	2D 2f 2a
=31	=31	=31	=31	=31	=31
1IV7	B-:maj7	86.59	newline	voice	1B- 1dd 1ff 1aa
=32	=32	=32	=32	=32	=32
1ii7	G:min7	89.439	.	voice	1G 1b- 1dd 1ff
=33	=33	=33	=33	=33	=33
1ii7	G:min7	92.287	.	voice	1G 1b- 1dd 1ff
=34	=34	=34	=34	=34	=34
1V7	C:11	95.136	.	voice	1C 1e 1g 1b-
=35	=35	=35	=35	=35	=35
*>A_chorus	*>A_chorus	*>A_chorus	*>A_chorus	*>A_chorus	*>A_chorus
2I	F:maj	97.985	newline	voice	2F 2a 2cc
2iii7	A:min7	99.417	.	voice	2A 2cc 2ee 2gg
=36	=36	=36	=36	=36	=36
2vi	D:min	100.848	.	voice	2D 2f 2a
2Ic	F:maj/5	102.28	.	voice	2f 2a 2C
=37	=37	=37	=37	=37	=37
2IV	B-:maj	103.711	.	voice	2B- 2dd 2ff
2Ib	F:maj/3	105.143	.	voice	2f 2A 2cc
=38	=38	=38	=38	=38	=38
2ii7	G:min7	106.574	.	voice	2G 2b- 2dd 2ff
2V7	C:11	108.006	.	voice	2C 2e 2g 2b-
=39	=39	=39	=39	=39	=39
2I	F:maj	109.437	newline	voice	2F 2a 2cc
2iii7	A:min7	110.86	.	voice	2A 2cc 2ee 2gg
=40	=40	=40	=40	=40	=40
2vi	D:min	112.284	.	voice	2D 2f 2a
2Ic	F:maj/5	113.707	.	voice	2f 2a 2C
=41	=41	=41	=41	=41	=41
2IV	B-:maj	115.13	.	voice	2B- 2dd 2ff
2Ib	F:maj/3	116.553	.	voice	2f 2A 2cc
=42	=42	=42	=42	=42	=42
2ii7	G:min7	117.976	.	voice	2G 2b- 2dd 2ff
4vi	D:min	119.399	.	voice	4D 4f 4a
4Ic	F:maj/5	120.11	.	voice	4f 4a 4C
=43	=43	=43	=43	=43	=43
*>A2_chorus	*>A2_chorus	*>A2_chorus	*>A2_chorus	*>A2_chorus	*>A2_chorus
2IV7	B-:maj7	120.822	newline	voice	2B- 2dd 2ff 2aa
2Ib	F:maj/3	122.234	.	voice	2f 2A 2cc
=44	=44	=44	=44	=44	=44
2ii7	G:min7	123.646	.	voice	2G 2b- 2dd 2ff
2I	F:maj	125.058	.	voice	2F 2a 2cc
=45	=45	=45	=45	=45	=45
2IV7	B-:maj7	126.47	newline	voice	2B- 2dd 2ff 2aa
2Ib	F:maj/3	127.888	.	voice	2f 2A 2cc
=46	=46	=46	=46	=46	=46
2ii7	G:min7	129.306	.	voice	2G 2b- 2dd 2ff
2V7	C:11	130.724	.	voice	2C 2e 2g 2b-
=47	=47	=47	=47	=47	=47
*>_fadeout	*>_fadeout	*>_fadeout	*>_fadeout	*>_fadeout	*>_fadeout
2I	F:maj	132.142	newline	voice	2F 2a 2cc
2iii7	A:min7	133.564	.	voice	2A 2cc 2ee 2gg
=48	=48	=48	=48	=48	=48
2vi	D:min	134.987	.	voice	2D 2f 2a
2Ic	F:maj/5	136.409	.	voice	2f 2a 2C
=49	=49	=49	=49	=49	=49
2IV	B-:maj	137.832	.	voice	2B- 2dd 2ff
2Ib	F:maj/3	139.255	.	voice	2f 2A 2cc
=50	=50	=50	=50	=50	=50
2ii7	G:min7	140.677	.	voice	2G 2b- 2dd 2ff
2V7	C:11	142.1	.	voice	2C 2e 2g 2b-
1r;	N	143.523	.	r	1r;
1r;	N	147.395	.	r	1r;
*-	*-	*-	*-	*-	*-
!!!OTL: Rich Girl
!!!COC: Daryl Hall & John Oates
!!!BillboardChartDate: 1977/05/07
!!!BillboardPeak: 1
!!!BillboardWeeksOnChart: 20
!!!SampleTargetRank: 31
!!!SampleActualRank: 30
!!!SampleID#: 0485
!!!RDF**harmony: **recip + pitch class of root + harmonic quality
!!!RDF**harte: Chris Harte's syntax, used by MIREX
!!!RDF**phrase: newline = linebreak in original McGill transcription
!!!RDF**timestamp: McGill audio timestamp in seconds
!!!RDF**leadinstrument: original McGill primary instrumentation annotation
!!!RDT: 2017/01/12/
!!!ENC: Nathaniel Condit-Schultz
!!!EST: Awating manual error checking and editing.
